src/home/img/analytics.svg

<svg height="407" viewBox="0 0 788 407" width="788" xmlns="http://www.w3.org/2000/svg" xmlns:xlink="http://www.w3.org/1999/xlink"><mask id="a" fill="#fff"><path d="m44 0h750c2.761424 0 5 2.23857625 5 5v335h-760v-335c0-2.76142375 2.2385763-5 5-5z" fill="#fff" fill-rule="evenodd"/></mask><g fill="none" fill-rule="evenodd" transform="translate(-11 -21)"><g fill="#8792a2" opacity=".4"><rect height="6" rx="3" width="18" x="11" y="55"/><rect height="6" rx="3" width="14" x="15" y="69"/><rect height="6" rx="3" width="14" x="15" y="83"/><rect height="6" rx="3" width="14" x="15" y="97"/><rect height="6" rx="3" width="14" x="15" y="111"/><rect height="6" rx="3" width="14" x="15" y="125"/><rect height="6" rx="3" width="14" x="15" y="139"/><rect height="6" rx="3" width="14" x="15" y="153"/><rect height="6" rx="3" width="14" x="15" y="167"/><rect height="6" rx="3" width="14" x="15" y="181"/><rect height="6" rx="3" width="14" x="15" y="195"/><rect height="6" rx="3" width="14" x="15" y="209"/><rect height="6" rx="3" width="14" x="15" y="223"/><rect height="6" rx="3" width="14" x="15" y="237"/><rect height="6" rx="3" width="14" x="15" y="251"/><rect height="6" rx="3" width="14" x="15" y="265"/><rect height="6" rx="3" width="14" x="15" y="279"/><rect height="6" rx="3" width="14" x="15" y="293"/><rect height="6" rx="3" width="14" x="15" y="307"/><rect height="6" rx="3" width="10" x="19" y="321"/><rect height="6" rx="3" width="8" x="21" y="335"/></g><rect fill="#8792a2" height="4" opacity=".3" rx="2" width="18" x="51" y="350"/><rect fill="#8792a2" height="4" opacity=".3" rx="2" width="18" x="87" y="350"/><rect fill="#2a2f45" height="12" opacity=".801" rx="6" width="65" x="162" y="401"/><rect fill="#2a2f45" height="12" opacity=".801" rx="6" width="65" x="387" y="401"/><rect fill="#2a2f45" height="12" opacity=".801" rx="6" width="65" x="612" y="401"/><rect fill="#2a2f45" height="8" opacity=".151" rx="3" width="88" x="153" y="420"/><rect fill="#2a2f45" height="8" opacity=".151" rx="3" width="88" x="378" y="420"/><rect fill="#2a2f45" height="8" opacity=".151" rx="3" width="88" x="603" y="420"/><g fill="#8792a2"><rect height="4" opacity=".3" rx="2" width="18" x="123" y="350"/><rect height="4" opacity=".3" rx="2" width="18" x="159" y="350"/><rect height="4" opacity=".3" rx="2" width="18" x="195" y="350"/><rect height="4" opacity=".3" rx="2" width="18" x="231" y="350"/><rect height="4" opacity=".3" rx="2" width="18" x="267" y="350"/><rect height="4" opacity=".3" rx="2" width="18" x="303" y="350"/><rect height="4" opacity=".3" rx="2" width="18" x="339" y="350"/><rect height="4" opacity=".3" rx="2" width="18" x="375" y="350"/><rect height="4" opacity=".3" rx="2" width="18" x="411" y="350"/><rect height="4" opacity=".3" rx="2" width="18" x="447" y="350"/><rect height="4" opacity=".3" rx="2" width="18" x="483" y="350"/><rect height="4" opacity=".3" rx="2" width="18" x="519" y="350"/><rect height="4" opacity=".3" rx="2" width="18" x="555" y="350"/><rect height="4" opacity=".3" rx="2" width="18" x="591" y="350"/><rect height="4" opacity=".3" rx="2" width="18" x="627" y="350"/><rect height="4" opacity=".3" rx="2" width="18" x="663" y="350"/><rect height="4" opacity=".3" rx="2" width="18" x="699" y="350"/><rect height="4" opacity=".3" rx="2" width="18" x="735" y="350"/><rect height="4" opacity=".3" rx="2" width="18" x="771" y="350"/></g><g mask="url(#a)"><g fill="#1851be" stroke-width="6" transform="translate(39 60)"><path d="m4.82460423 276h757.18455577l.488194-159.639352-45.657746-72.6072775c-.055724-.0886148-.112265-.176713-.169616-.2642834l-18.191177-27.7764027c-.212227-.3240533-.439645-.6378999-.681492-.9404903-4.241087-5.30629908-11.980773-6.16982384-17.287072-1.9287365l-8.426087 6.7345939c-2.61157 2.0873111-4.54971 4.8983268-5.571983 8.0814263l-31.018702 96.5843402c-1.237439 3.853071-3.772595 7.157877-7.173508 9.351321-8.118576 5.236135-18.944708 2.899454-24.180843-5.219122l-15.348871-23.798274c-.71092-1.102274-1.54702-2.118569-2.491614-3.028601l-25.47982-24.5475501c-3.29563-3.1750478-7.732155-4.8873138-12.306337-4.7496007l-13.811785.415826c-7.869234.2369159-15.312915-3.5675888-19.730343-10.0842835l-10.439253-15.4002337c-1.432141-2.1127283-3.503168-3.7113565-5.909727-4.5617242-6.222192-2.1986381-13.048624 1.0630969-15.247262 7.2852891l-19.263106 54.5149971c-2.886162 8.167897-10.1169 14.021295-18.70674 15.143404l-12.487469 1.631263c-3.302829.431456-6.406141 1.82368-8.924496 4.003754l-13.36288 11.567898c-1.411541 1.221935-2.978915 2.251256-4.661123 3.061039-10.50695 5.057848-23.124711.640478-28.182558-9.866471l-6.712077-13.943372c-1.472315-3.058521-3.87913-5.56959-6.872509-7.170198-7.793065-4.167077-17.488676-1.227632-21.655753 6.565433-2.295407 4.292759-6.114409 7.570927-10.705418 9.189354-10.149848 3.578033-21.278494-1.749475-24.856528-11.899323l-17.875443-50.7074732c-.292169-.8287993-.65801-1.629754-1.093134-2.3932576-4.023139-7.0593093-13.007237-9.5206124-20.066547-5.4974743l-13.760844 7.842379c-2.596578 1.4798037-4.757153 3.6179858-6.263927 6.1990067l-31.332002 53.6699964c-2.849997 4.881887-7.398029 8.543233-12.775877 10.285086l-24.476179 7.92769c-3.123251 1.011602-5.886778 2.905913-7.956748 5.454099l-25.239535 31.070516c-5.848406 7.199539-15.449074 10.181437-24.347166 7.562055l-11.90682-3.505079c-6.538448-1.92476-13.5943833.241738-17.9260453 5.504124l-16.1237806 19.588223c-.0738941.089464-.0738941.089464-.1483883.178429-8.1713501 9.72542-22.6795488 10.985243-32.4049689 2.813893l-3.2157697-2.701907c-1.4299405-1.201444-3.1171723-2.057726-4.9310946-2.502566-6.5291506-1.601187-13.1200912 2.393717-14.7212779 8.922868z" fill-opacity=".1" stroke="#bcc5de"/><path d="m5.79973652 277h756.20026348v-54.998932c0-2.790972-.687158-5.539017-2.000804-8.001508l-30.003462-56.242872c-2.650494-4.968474-7.589357-8.302024-13.188566-8.901794l-23.640482-2.532295c-1.785595-.191268-3.59022-.098404-5.346751.275138l-22.247395 4.731099c-5.291059 1.125189-9.730795 4.701293-11.957204 9.631248l-20.943822 46.376063c-.385314.853204-.829861 1.678399-1.330382 2.469538-5.925435 9.365917-18.321524 12.154979-27.687441 6.229544l-13.713607-8.676041c-2.194455-1.388342-4.137955-3.138279-5.748074-5.175591l-22.905634-28.982926c-4.206027-5.321965-11.188887-7.609731-17.728697-5.808383l-5.126684 1.412112c-4.141137 1.140649-7.696977 3.80663-9.952702 7.462009l-23.516858 38.108827c-1.156474 1.874053-2.592543 3.560373-4.258481 5.000566-9.030815 7.807084-22.68063 6.815054-30.487714-2.215761l-3.674274-4.250202c-6.087692-7.041915-16.70665-7.878356-23.82179-1.87641l-12.60995 10.637069c-4.07438 3.436927-9.21603 5.351974-14.546012 5.417774l-16.345592.201793c-7.030427.086793-13.714388-3.046881-18.144364-8.506712l-16.542406-20.388086c-5.18984-6.396343-14.21858-8.15186-21.42706-4.166202l-13.425279 7.423002c-5.294969 2.927654-11.530294 3.650965-17.354861 2.013202l-22.643741-6.367011c-5.05572-1.421577-9.472677-4.530557-12.516697-8.810174l-19.325826-27.170364c-.599514-.842862-1.274701-1.629253-2.017158-2.349386-6.739462-6.536818-17.502013-6.372543-24.038831.366919l-18.979596 19.567971c-1.249054 1.287774-2.644487 2.424988-4.157843 3.388448l-24.913431 15.860844c-.336487.214221-.66533.440218-.985918.677572l-43.965394 32.550697c-2.029538 1.502611-4.292678 2.660737-6.698576 3.427889l-35.7176305 11.38904c-3.9205765 1.250127-8.1047505 1.425511-12.1161914.507861l-20.3039571-4.644696c-2.7708125-.633846-5.65633-.562825-8.3926048.206566l-25.6191303 7.203636c-3.7491349 1.054189-7.0226413 3.363689-9.2730184 6.542231z" fill-opacity=".7" stroke="#4967ac"/></g><g transform="translate(59 21)"><rect fill="#d8e0f1" height="14" rx="3" width="14" y="19"/><rect fill="#527ccd" height="14" rx="3" width="14" y="40"/><rect fill="#8792a2" height="6" opacity=".7" rx="3" width="48" x="22" y="23"/><rect fill="#2a2f45" height="9" opacity=".8" rx="4.5" width="98"/><rect fill="#8792a2" height="6" opacity=".7" rx="3" width="48" x="22" y="44"/></g></g></g></svg>

<svg xmlns="http://www.w3.org/2000/svg" xmlns:xlink="http://www.w3.org/1999/xlink" width="788" height="407" viewBox="0 0 788 407">
  <defs>
    <path id="analytics-a" d="M44,0 L794,0 C796.761424,-5.07265313e-16 799,2.23857625 799,5 L799,340 L799,340 L39,340 L39,5 C39,2.23857625 41.2385763,5.07265313e-16 44,0 Z"/>
  </defs>
  <g fill="none" fill-rule="evenodd" transform="translate(-11 -21)">
    <g fill="#8792A2" opacity=".4" transform="translate(11 55)">
      <rect width="18" height="6" rx="3"/>
      <rect width="14" height="6" x="4" y="14" rx="3"/>
      <rect width="14" height="6" x="4" y="28" rx="3"/>
      <rect width="14" height="6" x="4" y="42" rx="3"/>
      <rect width="14" height="6" x="4" y="56" rx="3"/>
      <rect width="14" height="6" x="4" y="70" rx="3"/>
      <rect width="14" height="6" x="4" y="84" rx="3"/>
      <rect width="14" height="6" x="4" y="98" rx="3"/>
      <rect width="14" height="6" x="4" y="112" rx="3"/>
      <rect width="14" height="6" x="4" y="126" rx="3"/>
      <rect width="14" height="6" x="4" y="140" rx="3"/>
      <rect width="14" height="6" x="4" y="154" rx="3"/>
      <rect width="14" height="6" x="4" y="168" rx="3"/>
      <rect width="14" height="6" x="4" y="182" rx="3"/>
      <rect width="14" height="6" x="4" y="196" rx="3"/>
      <rect width="14" height="6" x="4" y="210" rx="3"/>
      <rect width="14" height="6" x="4" y="224" rx="3"/>
      <rect width="14" height="6" x="4" y="238" rx="3"/>
      <rect width="14" height="6" x="4" y="252" rx="3"/>
      <rect width="10" height="6" x="8" y="266" rx="3"/>
      <rect width="8" height="6" x="10" y="280" rx="3"/>
    </g>
    <rect width="18" height="4" x="51" y="350" fill="#8792A2" opacity=".3" rx="2"/>
    <rect width="18" height="4" x="87" y="350" fill="#8792A2" opacity=".3" rx="2"/>
    <rect width="65" height="12" x="162" y="401" fill="#2A2F45" opacity=".801" rx="6"/>
    <rect width="65" height="12" x="387" y="401" fill="#2A2F45" opacity=".801" rx="6"/>
    <rect width="65" height="12" x="612" y="401" fill="#2A2F45" opacity=".801" rx="6"/>
    <rect width="88" height="8" x="153" y="420" fill="#2A2F45" opacity=".151" rx="3"/>
    <rect width="88" height="8" x="378" y="420" fill="#2A2F45" opacity=".151" rx="3"/>
    <rect width="88" height="8" x="603" y="420" fill="#2A2F45" opacity=".151" rx="3"/>
    <rect width="18" height="4" x="123" y="350" fill="#8792A2" opacity=".3" rx="2"/>
    <rect width="18" height="4" x="159" y="350" fill="#8792A2" opacity=".3" rx="2"/>
    <rect width="18" height="4" x="195" y="350" fill="#8792A2" opacity=".3" rx="2"/>
    <rect width="18" height="4" x="231" y="350" fill="#8792A2" opacity=".3" rx="2"/>
    <rect width="18" height="4" x="267" y="350" fill="#8792A2" opacity=".3" rx="2"/>
    <rect width="18" height="4" x="303" y="350" fill="#8792A2" opacity=".3" rx="2"/>
    <rect width="18" height="4" x="339" y="350" fill="#8792A2" opacity=".3" rx="2"/>
    <rect width="18" height="4" x="375" y="350" fill="#8792A2" opacity=".3" rx="2"/>
    <rect width="18" height="4" x="411" y="350" fill="#8792A2" opacity=".3" rx="2"/>
    <rect width="18" height="4" x="447" y="350" fill="#8792A2" opacity=".3" rx="2"/>
    <rect width="18" height="4" x="483" y="350" fill="#8792A2" opacity=".3" rx="2"/>
    <rect width="18" height="4" x="519" y="350" fill="#8792A2" opacity=".3" rx="2"/>
    <rect width="18" height="4" x="555" y="350" fill="#8792A2" opacity=".3" rx="2"/>
    <rect width="18" height="4" x="591" y="350" fill="#8792A2" opacity=".3" rx="2"/>
    <rect width="18" height="4" x="627" y="350" fill="#8792A2" opacity=".3" rx="2"/>
    <rect width="18" height="4" x="663" y="350" fill="#8792A2" opacity=".3" rx="2"/>
    <rect width="18" height="4" x="699" y="350" fill="#8792A2" opacity=".3" rx="2"/>
    <rect width="18" height="4" x="735" y="350" fill="#8792A2" opacity=".3" rx="2"/>
    <rect width="18" height="4" x="771" y="350" fill="#8792A2" opacity=".3" rx="2"/>
    <mask id="analytics-b" fill="#fff">
      <use xlink:href="#analytics-a"/>
    </mask>
    <g mask="url(#analytics-b)">
      <g transform="translate(38.5 21)">
        <g transform="translate(.5 39)">
          <path fill="#1851BE" fill-opacity=".1" stroke="#BCC5DE" stroke-width="6" d="M4.82460423,276 L762.00916,276 L762.497354,116.360648 L716.839608,43.7533705 C716.783884,43.6647557 716.727343,43.5766575 716.669992,43.4890871 L698.478815,15.7126844 C698.266588,15.3886311 698.03917,15.0747845 697.797323,14.7721941 C693.556236,9.46589502 685.81655,8.60237026 680.510251,12.8434576 L672.084164,19.5780515 C669.472594,21.6653626 667.534454,24.4763783 666.512181,27.6594778 L635.493479,124.243818 C634.25604,128.096889 631.720884,131.401695 628.319971,133.595139 C620.201395,138.831274 609.375263,136.494593 604.139128,128.376017 L588.790257,104.577743 C588.079337,103.475469 587.243237,102.459174 586.298643,101.549142 L560.818823,77.0015919 C557.523193,73.8265441 553.086668,72.1142781 548.512486,72.2519912 L534.700701,72.6678172 C526.831467,72.9047331 519.387786,69.1002284 514.970358,62.5835337 L504.531105,47.1833 C503.098964,45.0705717 501.027937,43.4719435 498.621378,42.6215758 C492.399186,40.4229377 485.572754,43.6846727 483.374116,49.9068649 L464.11101,104.421862 C461.224848,112.589759 453.99411,118.443157 445.40427,119.565266 L432.916801,121.196529 C429.613972,121.627985 426.51066,123.020209 423.992305,125.200283 L410.629425,136.768181 C409.217884,137.990116 407.65051,139.019437 405.968302,139.82922 C395.461352,144.887068 382.843591,140.469698 377.785744,129.962749 L371.073667,116.019377 C369.601352,112.960856 367.194537,110.449787 364.201158,108.849179 C356.408093,104.682102 346.712482,107.621547 342.545405,115.414612 C340.249998,119.707371 336.430996,122.985539 331.839987,124.603966 C321.690139,128.181999 310.561493,122.854491 306.983459,112.704643 L289.108016,61.9971698 C288.815847,61.1683705 288.450006,60.3674158 288.014882,59.6039122 C283.991743,52.5446029 275.007645,50.0832998 267.948335,54.1064379 L254.187491,61.9488169 C251.590913,63.4286206 249.430338,65.5668027 247.923564,68.1478236 L216.591562,121.81782 C213.741565,126.699707 209.193533,130.361053 203.815685,132.102906 L179.339506,140.030596 C176.216255,141.042198 173.452728,142.936509 171.382758,145.484695 L146.143223,176.555211 C140.294817,183.75475 130.694149,186.736648 121.796057,184.117266 L109.889237,180.612187 C103.350789,178.687427 96.2948537,180.853925 91.9631917,186.116311 L75.8394111,205.704534 C75.765517,205.793998 75.765517,205.793998 75.6910228,205.882963 C67.5196727,215.608383 53.011474,216.868206 43.2860539,208.696856 L40.0702842,205.994949 C38.6403437,204.793505 36.9531119,203.937223 35.1391896,203.492383 C28.610039,201.891196 22.0190984,205.8861 20.4179117,212.415251 L4.82460423,276 Z"/>
          <path fill="#1851BE" fill-opacity=".7" stroke="#4967AC" stroke-width="6" d="M5.79973652,277 L762,277 L762,222.001068 C762,219.210096 761.312842,216.462051 759.999196,213.99956 L729.995734,157.756688 C727.34524,152.788214 722.406377,149.454664 716.807168,148.854894 L693.166686,146.322599 C691.381091,146.131331 689.576466,146.224195 687.819935,146.597737 L665.57254,151.328836 C660.281481,152.454025 655.841745,156.030129 653.615336,160.960084 L632.671514,207.336147 C632.2862,208.189351 631.841653,209.014546 631.341132,209.805685 C625.415697,219.171602 613.019608,221.960664 603.653691,216.035229 L589.940084,207.359188 C587.745629,205.970846 585.802129,204.220909 584.19201,202.183597 L561.286376,173.200671 C557.080349,167.878706 550.097489,165.59094 543.557679,167.392288 L538.430995,168.8044 C534.289858,169.945049 530.734018,172.61103 528.478293,176.266409 L504.961435,214.375236 C503.804961,216.249289 502.368892,217.935609 500.702954,219.375802 C491.672139,227.182886 478.022324,226.190856 470.21524,217.160041 L466.540966,212.909839 C460.453274,205.867924 449.834316,205.031483 442.719176,211.033429 L430.109226,221.670498 C426.034846,225.107425 420.893196,227.022472 415.563214,227.088272 L399.217622,227.290065 C392.187195,227.376858 385.503234,224.243184 381.073258,218.783353 L364.530852,198.395267 C359.341012,191.998924 350.312272,190.243407 343.103792,194.229065 L329.678513,201.652067 C324.383544,204.579721 318.148219,205.303032 312.323652,203.665269 L289.679911,197.298258 C284.624191,195.876681 280.207234,192.767701 277.163214,188.488084 L257.837388,161.31772 C257.237874,160.474858 256.562687,159.688467 255.82023,158.968334 C249.080768,152.431516 238.318217,152.595791 231.781399,159.335253 L212.801803,178.903224 C211.552749,180.190998 210.157316,181.328212 208.64396,182.291672 L183.730529,198.152516 C183.394042,198.366737 183.065199,198.592734 182.744611,198.830088 L138.779217,231.380785 C136.749679,232.883396 134.486539,234.041522 132.080641,234.808674 L96.3630105,246.197714 C92.442434,247.447841 88.25826,247.623225 84.2468191,246.705575 L63.942862,242.060879 C61.1720495,241.427033 58.286532,241.498054 55.5502572,242.267445 L29.9311269,249.471081 C26.181992,250.52527 22.9084856,252.83477 20.6581085,256.013312 L5.79973652,277 Z"/>
        </g>
        <g transform="translate(20.5)">
          <rect width="14" height="14" y="19" fill="#D8E0F1" rx="3"/>
          <rect width="14" height="14" y="40" fill="#527CCD" rx="3"/>
          <rect width="48" height="6" x="22" y="23" fill="#8792A2" opacity=".7" rx="3"/>
          <rect width="98" height="9" fill="#2A2F45" opacity=".8" rx="4.5"/>
          <rect width="48" height="6" x="22" y="44" fill="#8792A2" opacity=".7" rx="3"/>
        </g>
      </g>
    </g>
  </g>
</svg>
